SVG/sign-in.svg

<?xml version="1.0" encoding="utf-8"?>
<!-- Generated by IcoMoon.io -->
<!DOCTYPE svg PUBLIC "-//W3C//DTD SVG 1.1//EN" "http://www.w3.org/Graphics/SVG/1.1/DTD/svg11.dtd">
<svg version="1.1" xmlns="http://www.w3.org/2000/svg" xmlns:xlink="http://www.w3.org/1999/xlink" width="12" height="14" viewBox="0 0 12 14">
<path fill="#444444" d="M9.25 7q0 0.203-0.148 0.352l-4.25 4.25q-0.148 0.148-0.352 0.148t-0.352-0.148-0.148-0.352v-2.25h-3.5q-0.203 0-0.352-0.148t-0.148-0.352v-3q0-0.203 0.148-0.352t0.352-0.148h3.5v-2.25q0-0.203 0.148-0.352t0.352-0.148 0.352 0.148l4.25 4.25q0.148 0.148 0.148 0.352zM12 4.25v5.5q0 0.93-0.66 1.59t-1.59 0.66h-2.5q-0.102 0-0.176-0.074t-0.074-0.176q0-0.031-0.008-0.156t-0.004-0.207 0.023-0.184 0.078-0.152 0.16-0.051h2.5q0.516 0 0.883-0.367t0.367-0.883v-5.5q0-0.516-0.367-0.883t-0.883-0.367h-2.438t-0.090-0.008-0.090-0.023-0.062-0.043-0.055-0.070-0.016-0.105q0-0.031-0.008-0.156t-0.004-0.207 0.023-0.184 0.078-0.152 0.16-0.051h2.5q0.93 0 1.59 0.66t0.66 1.59z"></path>
</svg>

<svg xmlns="http://www.w3.org/2000/svg" viewBox="0 0 12 14"><path d="M9.25 7q0 .203-.148.352l-4.25 4.25q-.148.148-.352.148t-.352-.148T4 11.25V9H.5q-.203 0-.352-.148T0 8.5v-3q0-.203.148-.352T.5 5H4V2.75q0-.203.148-.352T4.5 2.25t.352.148l4.25 4.25q.148.148.148.352zM12 4.25v5.5q0 .93-.66 1.59T9.75 12h-2.5q-.102 0-.176-.074T7 11.75q0-.03-.008-.156t-.004-.207.023-.184.08-.152.16-.05h2.5q.515 0 .882-.367T11 9.75v-5.5q0-.516-.368-.883T9.75 3H7.31l-.09-.008-.09-.023-.06-.044-.056-.07-.016-.105q0-.03-.008-.155t-.004-.207.023-.184.077-.152.16-.05h2.5q.93 0 1.59.66t.66 1.59z" /></svg>
